svgs/solid/brush.svg

<svg xmlns="http://www.w3.org/2000/svg" viewBox="0 0 384 512"><!-- Font Awesome Pro 6.0.0-alpha2 by @fontawesome - https://fontawesome.com License - https://fontawesome.com/license (Commercial License) --><path d="M0 320C0 355.375 28.625 384 64 384H128V448C128 483.375 156.625 512 192 512S256 483.375 256 448V384H320C355.375 384 384 355.375 384 320V288H0V320ZM192 424C205.25 424 216 434.75 216 448S205.25 472 192 472S168 461.25 168 448S178.75 424 192 424ZM352 0H224L192 64L160 0H128L96 64L64 0H32C14.375 0 0 14.375 0 32V256H384V32C384 14.375 369.625 0 352 0Z"/></svg>

<svg xmlns="http://www.w3.org/2000/svg" viewBox="0 0 384 512"><!--! Font Awesome Pro 6.3.0 by @fontawesome - https://fontawesome.com License - https://fontawesome.com/license (Commercial License) Copyright 2023 Fonticons, Inc. --><path d="M192 64L160 0H128L96 64 64 0H48C21.5 0 0 21.5 0 48V256H384V48c0-26.5-21.5-48-48-48H224L192 64zM0 288v32c0 35.3 28.7 64 64 64h64v64c0 35.3 28.7 64 64 64s64-28.7 64-64V384h64c35.3 0 64-28.7 64-64V288H0zM192 432a16 16 0 1 1 0 32 16 16 0 1 1 0-32z"/></svg>
